X: 237
T: Du linying
%%abc-version 2.0
%%abcx-abcm2ps-target-version 5.9.1 (29 Sep 2008)
%%abc-creator hum2abc beta
%%abcx-conversion-date 2013/10/02 07:52:29
%%abc-edited-by Helmut Schaffrath
%%humdrum-veritas 1337183634
%%humdrum-veritas-data 2351508085
%%continueall 1
%%barnumbers 0
L: 1/8
M: 4/8
K: G
A2B2 [I:setbarnb 1]| 
e dG2- | 
G B A F | 
E4 | 
A2d2 | 
e dG2- | 
G B A F | 
E4 | 
e2e2 | 
B2d2 | 
B AG2 | 
F ED2 | 
G2A G | 
F E G D | 
D ED4 |]  



